X:243
T:Molloy's Favourite
Z: id:dc-reel-223
M:C
L:1/8
K:D Major
d2Ad fdAF|GFEF GABc|d2Ad fdAF|GBAG FDD2:|!
fggf gaag|fggf gfeg|fggf gaag|faeg fdd2|!
dfaf gbag|fggf gfeg|feec dcBA|^GABc dgfe|]!

